icon/lg/aws-mq.svg

<?xml version="1.0" encoding="UTF-8"?>
<svg viewBox="0 0 256 256" version="1.1" xmlns="http://www.w3.org/2000/svg" xmlns:xlink="http://www.w3.org/1999/xlink" preserveAspectRatio="xMidYMid" height="1em" width="1em">
  <defs>
    <linearGradient x1="0%" y1="100%" x2="100%" y2="0%" id="linearGradient-1">
      <stop stop-color="#B0084D" offset="0%"/>
      <stop stop-color="#FF4F8B" offset="100%"/>
    </linearGradient>
  </defs>
  <g>
    <rect fill="url(#linearGradient-1)" x="0" y="0" width="256" height="256"/>
    <path d="M64.4384,165.1296 C61.3056,159.776 58.8608,154.0352 57.1712,148.0736 L63.328,146.3296 C64.8704,151.7728 67.1008,157.008 69.9648,161.8976 L64.4384,165.1296 Z M63.328,109.6736 L57.1712,107.9296 C58.8256,102.0896 61.2064,96.4608 64.2496,91.1968 L69.7888,94.4032 C67.0112,99.2032 64.8384,104.3424 63.328,109.6736 L63.328,109.6736 Z M100.5088,66.6624 L97.8912,60.8256 C107.3824,56.5632 117.5136,54.4 128,54.4 C138.4896,54.4 148.6208,56.5632 158.1088,60.8256 L155.4912,66.6624 C146.8288,62.7744 137.5776,60.8 128,60.8 C118.4224,60.8 109.1712,62.7744 100.5088,66.6624 L100.5088,66.6624 Z M191.7504,91.1968 C194.7936,96.4608 197.1744,102.0896 198.8288,107.9296 L192.672,109.6736 C191.1648,104.3424 188.992,99.2032 186.2144,94.4032 L191.7504,91.1968 Z M192.672,146.3296 L198.8288,148.0736 C197.1744,153.9136 194.7936,159.5424 191.7504,164.8032 L186.2144,161.5968 C188.992,156.7968 191.1648,151.6608 192.672,146.3296 L192.672,146.3296 Z M155.4912,189.3408 L158.1088,195.1776 C148.6208,199.44 138.4896,201.6 128,201.6 C117.5136,201.6 107.3824,199.44 97.8912,195.1776 L100.5088,189.3408 C109.1712,193.2288 118.4224,195.2 128,195.2 C137.5776,195.2 146.8288,193.2288 155.4912,189.3408 L155.4912,189.3408 Z M80,188.8 C74.7072,188.8 70.4,184.496 70.4,179.2 C70.4,173.9072 74.7072,169.6 80,169.6 C85.296,169.6 89.6,173.9072 89.6,179.2 C89.6,184.496 85.296,188.8 80,188.8 L80,188.8 Z M80,163.2 C71.1776,163.2 64,170.3808 64,179.2 C64,188.0224 71.1776,195.2 80,195.2 C88.8224,195.2 96,188.0224 96,179.2 C96,170.3808 88.8224,163.2 80,163.2 L80,163.2 Z M176,188.8 C170.7072,188.8 166.4,184.496 166.4,179.2 C166.4,173.9072 170.7072,169.6 176,169.6 C181.296,169.6 185.6,173.9072 185.6,179.2 C185.6,184.496 181.296,188.8 176,188.8 L176,188.8 Z M176,163.2 C167.1776,163.2 160,170.3808 160,179.2 C160,188.0224 167.1776,195.2 176,195.2 C184.8224,195.2 192,188.0224 192,179.2 C192,170.3808 184.8224,163.2 176,163.2 L176,163.2 Z M51.2,128 C51.2,122.7072 55.5072,118.4 60.8,118.4 C66.096,118.4 70.4,122.7072 70.4,128 C70.4,133.296 66.096,137.6 60.8,137.6 C55.5072,137.6 51.2,133.296 51.2,128 L51.2,128 Z M76.4768,131.2 L91.5008,131.2 L87.344,135.3312 L91.856,139.8688 L101.456,130.3264 C102.0608,129.728 102.3968,128.9152 102.400023,128.064 C102.4032,127.216 102.0704,126.4 101.4688,125.7984 L91.8688,116.144 L87.3312,120.6592 L91.4496,124.8 L76.4768,124.8 C74.992,117.5072 68.5248,112 60.8,112 C51.9776,112 44.8,119.1808 44.8,128 C44.8,136.8224 51.9776,144 60.8,144 C68.5248,144 74.992,138.496 76.4768,131.2 L76.4768,131.2 Z M198.4,137.6 C193.1072,137.6 188.8,133.296 188.8,128 C188.8,122.7072 193.1072,118.4 198.4,118.4 C203.696,118.4 208,122.7072 208,128 C208,133.296 203.696,137.6 198.4,137.6 L198.4,137.6 Z M198.4,112 C189.5776,112 182.4,119.1808 182.4,128 C182.4,136.8224 189.5776,144 198.4,144 C207.2224,144 214.4,136.8224 214.4,128 C214.4,119.1808 207.2224,112 198.4,112 L198.4,112 Z M80,67.2 C85.296,67.2 89.6,71.5072 89.6,76.8 C89.6,82.096 85.296,86.4 80,86.4 C74.7072,86.4 70.4,82.096 70.4,76.8 C70.4,71.5072 74.7072,67.2 80,67.2 L80,67.2 Z M80,92.8 C88.8224,92.8 96,85.6224 96,76.8 C96,67.9808 88.8224,60.8 80,60.8 C71.1776,60.8 64,67.9808 64,76.8 C64,85.6224 71.1776,92.8 80,92.8 L80,92.8 Z M176,67.2 C181.296,67.2 185.6,71.5072 185.6,76.8 C185.6,82.096 181.296,86.4 176,86.4 C170.7072,86.4 166.4,82.096 166.4,76.8 C166.4,71.5072 170.7072,67.2 176,67.2 L176,67.2 Z M176,92.8 C184.8224,92.8 192,85.6224 192,76.8 C192,67.9808 184.8224,60.8 176,60.8 C167.1776,60.8 160,67.9808 160,76.8 C160,85.6224 167.1776,92.8 176,92.8 L176,92.8 Z M161.28,135.0432 L166.3968,131.2 L153.6,131.2 L153.6,124.8 L166.4,124.8 L161.2832,120.9632 L165.12,115.84 L177.92,125.4368 C178.7264,126.0416 179.2,126.9888 179.2,127.9968 C179.2,129.0016 178.7264,129.952 177.9232,130.5568 L165.1232,140.16 L161.28,135.0432 Z M146.736,146.7776 C140.9792,144.5504 134.4896,143.4368 128,143.4368 C121.5136,143.4368 115.024,144.5504 109.2672,146.7776 C111.4464,141.2 112.6176,134.7936 112.6176,128 C112.6176,121.2096 111.4464,114.8032 109.2672,109.2256 C120.7776,113.68 135.2224,113.68 146.736,109.2256 C144.5536,114.8032 143.3856,121.2096 143.3856,128 C143.3856,134.7936 144.5536,141.2 146.736,146.7776 L146.736,146.7776 Z M159.0624,154.5376 C153.2544,148.7296 149.7856,138.8096 149.7856,128 C149.7856,117.1936 153.2544,107.2736 159.0624,101.4624 C159.6896,100.8384 160,100.0192 160,99.2 C160,98.384 159.6896,97.5648 159.0624,96.9376 C157.8144,95.6896 155.7888,95.6896 154.5376,96.9376 C142.1376,109.3376 113.8624,109.3376 101.4624,96.9376 C100.2144,95.6896 98.1888,95.6896 96.9376,96.9376 C96.3136,97.5648 96,98.384 96,99.2 C96,100.0192 96.3136,100.8384 96.9376,101.4624 C102.7488,107.2736 106.2176,117.1936 106.2176,128 C106.2176,138.8096 102.7488,148.7296 96.9376,154.5376 C96.3136,155.1648 96,155.984 96,156.8 C96,157.6192 96.3136,158.4384 96.9376,159.0624 C98.1888,160.3136 100.2144,160.3136 101.4624,159.0624 C113.8624,146.6624 142.1376,146.6624 154.5376,159.0624 C155.1648,159.6896 155.9808,160 156.8,160 C157.6192,160 158.4384,159.6896 159.0624,159.0624 C159.6896,158.4384 160,157.6192 160,156.8 C160,155.984 159.6896,155.1648 159.0624,154.5376 L159.0624,154.5376 Z" fill="#FFFFFF"/>
  </g>
</svg>

<svg width="256" height="256" xmlns="http://www.w3.org/2000/svg" preserveAspectRatio="xMidYMid"><defs><linearGradient x1="0%" y1="100%" x2="100%" y2="0%" id="a"><stop stop-color="#B0084D" offset="0%"/><stop stop-color="#FF4F8B" offset="100%"/></linearGradient></defs><path fill="url(#a)" d="M0 0h256v256H0z"/><path d="M64.438 165.13a73.455 73.455 0 0 1-7.267-17.056l6.157-1.744a66.899 66.899 0 0 0 6.637 15.568l-5.527 3.232Zm-1.11-55.456-6.157-1.744a73.466 73.466 0 0 1 7.079-16.733l5.539 3.206a66.954 66.954 0 0 0-6.461 15.27Zm37.18-43.012-2.617-5.836C107.382 56.563 117.514 54.4 128 54.4c10.49 0 20.62 2.163 30.109 6.426l-2.618 5.836C146.83 62.774 137.578 60.8 128 60.8s-18.829 1.974-27.491 5.862Zm91.242 24.535a73.466 73.466 0 0 1 7.079 16.733l-6.157 1.744a66.802 66.802 0 0 0-6.458-15.27l5.536-3.207Zm.922 55.133 6.157 1.744a73.382 73.382 0 0 1-7.079 16.73l-5.536-3.207a66.778 66.778 0 0 0 6.458-15.267Zm-37.18 43.01 2.617 5.838c-9.488 4.262-19.62 6.422-30.109 6.422-10.486 0-20.618-2.16-30.109-6.422l2.618-5.837c8.662 3.888 17.913 5.859 27.491 5.859s18.829-1.971 27.491-5.86ZM80 188.8c-5.293 0-9.6-4.304-9.6-9.6 0-5.293 4.307-9.6 9.6-9.6 5.296 0 9.6 4.307 9.6 9.6 0 5.296-4.304 9.6-9.6 9.6Zm0-25.6c-8.822 0-16 7.18-16 16 0 8.822 7.178 16 16 16s16-7.178 16-16c0-8.82-7.178-16-16-16Zm96 25.6c-5.293 0-9.6-4.304-9.6-9.6 0-5.293 4.307-9.6 9.6-9.6 5.296 0 9.6 4.307 9.6 9.6 0 5.296-4.304 9.6-9.6 9.6Zm0-25.6c-8.822 0-16 7.18-16 16 0 8.822 7.178 16 16 16s16-7.178 16-16c0-8.82-7.178-16-16-16ZM51.2 128c0-5.293 4.307-9.6 9.6-9.6 5.296 0 9.6 4.307 9.6 9.6 0 5.296-4.304 9.6-9.6 9.6-5.293 0-9.6-4.304-9.6-9.6Zm25.277 3.2H91.5l-4.157 4.131 4.512 4.538 9.6-9.543c.605-.598.94-1.41.944-2.262a3.185 3.185 0 0 0-.931-2.266l-9.6-9.654-4.538 4.515 4.119 4.141H76.477C74.992 117.507 68.525 112 60.8 112c-8.822 0-16 7.18-16 16 0 8.822 7.178 16 16 16 7.725 0 14.192-5.504 15.677-12.8Zm121.923 6.4c-5.293 0-9.6-4.304-9.6-9.6 0-5.293 4.307-9.6 9.6-9.6 5.296 0 9.6 4.307 9.6 9.6 0 5.296-4.304 9.6-9.6 9.6Zm0-25.6c-8.822 0-16 7.18-16 16 0 8.822 7.178 16 16 16s16-7.178 16-16c0-8.82-7.178-16-16-16ZM80 67.2c5.296 0 9.6 4.307 9.6 9.6 0 5.296-4.304 9.6-9.6 9.6-5.293 0-9.6-4.304-9.6-9.6 0-5.293 4.307-9.6 9.6-9.6Zm0 25.6c8.822 0 16-7.178 16-16 0-8.82-7.178-16-16-16s-16 7.18-16 16c0 8.822 7.178 16 16 16Zm96-25.6c5.296 0 9.6 4.307 9.6 9.6 0 5.296-4.304 9.6-9.6 9.6-5.293 0-9.6-4.304-9.6-9.6 0-5.293 4.307-9.6 9.6-9.6Zm0 25.6c8.822 0 16-7.178 16-16 0-8.82-7.178-16-16-16s-16 7.18-16 16c0 8.822 7.178 16 16 16Zm-14.72 42.243 5.117-3.843H153.6v-6.4h12.8l-5.117-3.837 3.837-5.123 12.8 9.597a3.198 3.198 0 0 1 1.28 2.56 3.208 3.208 0 0 1-1.277 2.56l-12.8 9.603-3.843-5.117Zm-14.544 11.735c-5.757-2.228-12.246-3.341-18.736-3.341-6.486 0-12.976 1.113-18.733 3.34 2.18-5.577 3.35-11.983 3.35-18.777 0-6.79-1.17-13.197-3.35-18.774 11.51 4.454 25.955 4.454 37.469 0-2.182 5.577-3.35 11.984-3.35 18.774 0 6.794 1.168 13.2 3.35 18.778Zm12.326 7.76c-5.808-5.808-9.276-15.728-9.276-26.538 0-10.806 3.468-20.726 9.276-26.538A3.178 3.178 0 0 0 160 99.2a3.202 3.202 0 0 0-5.462-2.262c-12.4 12.4-40.676 12.4-53.076 0A3.202 3.202 0 0 0 96 99.2c0 .82.314 1.638.938 2.262 5.81 5.812 9.28 15.732 9.28 26.538 0 10.81-3.47 20.73-9.28 26.538a3.202 3.202 0 0 0 0 4.524 3.196 3.196 0 0 0 4.524 0c12.4-12.4 40.676-12.4 53.076 0a3.183 3.183 0 0 0 2.262.938c.82 0 1.638-.31 2.262-.938A3.178 3.178 0 0 0 160 156.8c0-.816-.31-1.635-.938-2.262Z" fill="#FFF"/></svg>
